X:2
T: Neujahrslied, (Band 1), S. 13
N: P0776
O: Lothringen
S: PINCK, Louis: Verklingende Weisen, Bd 1, Metz 1928]
R: geistliche, religiöse Lieder]
M: 3/4
L: 1/8
K: F
C2 | F2F2C2 | F2F2A2 | A4c2 | A4
A2 | A2G2G2 | G2F2EE | D4D2 | C4
CC | F2F2CC | F2F2A2 | A2A2c2 | F4
AA | A2G2G2 | G2F2E2 | D2E2D2 | C4
C2 | F2F2C2 | F2G2A2 | CCDDEE | F4

